lib/functional/media/rewind.svg

<svg xmlns="http://www.w3.org/2000/svg" fill="none" stroke="currentColor" aria-hidden="true" viewBox="0 0 32 32"><g id="Icon-Rewind"><g clip-path="url(#clip0_12_3074)"><g id="size=md (32px)"><path id="Vector" stroke-linecap="round" stroke-linejoin="round" stroke-width="2" d="M1.81292 15.1624L12.9629 7.98744C13.1146 7.89078 13.2895 7.83679 13.4692 7.83118C13.649 7.82556 13.8269 7.86852 13.9843 7.95553C14.1417 8.04253 14.2727 8.17037 14.3635 8.32558C14.4543 8.48078 14.5016 8.65761 14.5004 8.83744V23.1624C14.5016 23.3423 14.4543 23.5191 14.3635 23.6743C14.2727 23.8295 14.1417 23.9573 13.9843 24.0444C13.8269 24.1314 13.649 24.1743 13.4692 24.1687C13.2895 24.1631 13.1146 24.1091 12.9629 24.0124L1.81292 16.8374C1.67085 16.7487 1.55369 16.6252 1.47247 16.4787C1.39125 16.3322 1.34863 16.1675 1.34863 15.9999C1.34863 15.8324 1.39125 15.6677 1.47247 15.5211C1.55369 15.3746 1.67085 15.2512 1.81292 15.1624V15.1624Z"/><path id="Vector_2" stroke-linecap="round" stroke-linejoin="round" stroke-width="2" d="M15.8129 15.1624L26.9629 7.98744C27.1146 7.89078 27.2895 7.83679 27.4692 7.83118C27.649 7.82556 27.8269 7.86852 27.9843 7.95553C28.1417 8.04253 28.2727 8.17037 28.3635 8.32558C28.4543 8.48078 28.5016 8.65761 28.5004 8.83744V23.1624C28.5016 23.3423 28.4543 23.5191 28.3635 23.6743C28.2727 23.8295 28.1417 23.9573 27.9843 24.0444C27.8269 24.1314 27.649 24.1743 27.4692 24.1687C27.2895 24.1631 27.1146 24.1091 26.9629 24.0124L15.8129 16.8374C15.6708 16.7487 15.5537 16.6252 15.4725 16.4787C15.3912 16.3322 15.3486 16.1675 15.3486 15.9999C15.3486 15.8324 15.3912 15.6677 15.4725 15.5211C15.5537 15.3746 15.6708 15.2512 15.8129 15.1624V15.1624Z"/></g></g></g><defs><clipPath id="clip0_12_3074"><rect width="32" height="32" fill="white" rx="5"/></clipPath></defs></svg>

<svg xmlns="http://www.w3.org/2000/svg" fill="none" stroke="currentColor" aria-hidden="true" viewBox="0 0 32 32"><g stroke="#101828" stroke-linecap="round" stroke-linejoin="round" stroke-width="2" clip-path="url(#a)"><path d="m1.813 15.162 11.15-7.175a1 1 0 0 1 1.537.85v14.325a1 1 0 0 1-1.537.85l-11.15-7.175a.987.987 0 0 1 0-1.675v0Zm14 0 11.15-7.175a1 1 0 0 1 1.537.85v14.325a1 1 0 0 1-1.537.85l-11.15-7.175a.987.987 0 0 1 0-1.675v0Z"/></g><defs><clipPath id="a"><rect width="32" height="32" fill="#fff" rx="5"/></clipPath></defs></svg>
